X: 2
T: Happy To Meet, Sorry To Part
R: jig
M: 6/8
L: 1/8
K: Gmaj
gf | edc BAB | GEF G2A | Bdd Bee | Bdd dge |
dBG AGE | DGF G2A | Bed B2A |1 BGF G :|2BGG Gef||
gag fed | Bdd def | gag fed | Bee e2f |
gag gfe | dBd g2e | dBG AGE | DGG Gef |
gag fed | Bdd def | gag fed | Bee e2f |
gag gfe | dBd g2f | gfg eag | fef g ||


Tune 1154	Setting 27902

